**kern	**kern	**dynam
*part1	*part1	*part1
*staff2	*staff1	*
*I"Piano	*	*
*clefF4	*clefG2	*
*k[f#c#g#d#a#]	*k[f#c#g#d#a#]	*
=1	=1	=1
4EE-X	8gnL	.
.	8e-X	.
4BB-X	8B-X	.
.	8Gn	.
4E-X	8B-	.
.	8e-J	.
=	=	=
4AA-X	8a-XL	.
.	8e-X	.
4E-X	8c-X	.
.	8A-X	<
4A-X	8c-	.
.	8e-J	.
=	=	=
4FF#X	8a#XL	.
.	8en	.
4C#X	8c#X	[
.	8A#	.
4F#	8c#	.
.	8eJ	.
=	=	=
4FF#	8cc#L	.
.	8f#	.
4F#	8e	.
.	8c#	>
4A#X	8e	.
.	8f#J	.
=	=	=
4BB	8dd#L 8bb	.
.	8b	.
4F#	8b 8ff#	] p
.	8f#	.
4B	8f# 8dd#	.
.	8d#J	.
=	=	=
4BBB	8bL 8ff#	.
.	8f#	.
4FF#	8f# 8dd#	.
.	8d#	.
4BB	8d# 8b	.
.	8BJ	.
=	=	=
4FF#	8eL 8f# 8cc#	.
.	8A#	.
4C#	8e 8f# 8b	.
.	8B	.
4F#	8e 8f# 8a#	.
.	8c#J	.
=	=	=
*-	*-	*-
!!!system-decoration: {(s1,s2)}
